X: 29870
T: O'Keefe's
R: reel
M: 4/4
K: Gmajor
|:E|DEGB A2GA|B2BA BE~E2|DEGB A2GB|dBAB G3:|
z|~g3e dged|B2Ac BE~E2|g2ge d2Bd|eaab agef|
~g3e dged|B2Ac BE~E2|DEGB A2GB|dBAB G3||

